icons/desktop/16/svg/export-data-16.svg

<svg width="16" height="16" viewBox="0 0 16 16" fill="none" xmlns="http://www.w3.org/2000/svg">
<path d="M2.41504 1.22504C4.80303 0.924042 7.24024 0.925946 9.61523 1.22895C10.975 1.40303 11.9998 2.57575 12 3.95746V4.49945H10.5V3.95746C10.4998 3.32867 10.0377 2.79618 9.4248 2.7182C8.29286 2.57322 7.14095 2.49945 6 2.49945C4.871 2.49945 3.72754 2.5723 2.60254 2.7143C1.97494 2.7935 1.50024 3.32883 1.5 3.95746V13.0424C1.50024 13.6712 1.96235 14.2037 2.5752 14.2817C4.82714 14.5697 7.13751 14.5716 9.39746 14.2856C10.0251 14.2064 10.4998 13.671 10.5 13.0424V12.4985H12V13.0405C12 14.4235 10.962 15.5979 9.58496 15.7729C8.39797 15.9229 7.19199 15.9985 6 15.9985C4.795 15.9985 3.57877 15.922 2.38477 15.77C1.02488 15.5959 0 14.4224 0 13.0405V3.95648C0.000225559 2.57368 1.03819 1.40002 2.41504 1.22504Z" fill="black"/>
<path d="M12.5293 5.97211C12.5293 5.55211 13.037 5.3421 13.334 5.6391L15.8623 8.16742C16.0458 8.35132 16.0458 8.64856 15.8623 8.83246L13.334 11.3608C13.038 11.6578 12.5303 11.4478 12.5303 11.0278V9.25043H6.75C6.33616 9.25043 6.00026 8.91421 6 8.50043C6 8.08643 6.336 7.75043 6.75 7.75043H12.5293V5.97211Z" fill="black"/>
</svg>

<!-- This Source Code Form is subject to the terms of the Mozilla Public
   - License, v. 2.0. If a copy of the MPL was not distributed with this
   - file, You can obtain one at http://mozilla.org/MPL/2.0/. -->
<svg xmlns="http://www.w3.org/2000/svg" width="16" height="16" fill="context-fill" fill-opacity="context-fill-opacity" viewBox="0 0 16 16">
    <path d="M2.415 1.225c2.388-.301 4.825-.3 7.2.004A2.75 2.75 0 0 1 12 3.957V4.5h-1.5v-.542c0-.628-.462-1.16-1.075-1.239a27 27 0 0 0-6.822-.004A1.26 1.26 0 0 0 1.5 3.957v9.085c0 .63.462 1.162 1.075 1.24 2.252.288 4.563.29 6.822.004a1.26 1.26 0 0 0 1.103-1.244V12.5H12v.541a2.76 2.76 0 0 1-2.415 2.733 28.7 28.7 0 0 1-7.2-.003A2.75 2.75 0 0 1 0 13.04V3.957a2.76 2.76 0 0 1 2.415-2.731" />
    <path d="M12.53 5.972c0-.42.507-.63.804-.333l2.528 2.528a.47.47 0 0 1 0 .665l-2.528 2.529a.47.47 0 0 1-.804-.333V9.25H6.75a.75.75 0 0 1 0-1.5h5.78z" />
</svg>
